X:14
T:Cameronian Reel
T:Carey's Dream
C:Reel
R:reel
M:C|
K:D
|A2 FA DAFA|GFEF GBdB|A2 FA DAFA|GBAG FDDB |
A2 FA DAFA|G~E3 GBdB|A2 FA DAFA|GBAG FDDB:|
Addc d2dA|(3Bcd ef gfed|(3cBA eA fAeA|cdef gfeg|
faeg faeg|fedc defg|afge fdec|dBAG FDD2:|

